src/shared/routelogo/images/q.svg

<?xml version="1.0" standalone="no"?>
<!DOCTYPE svg PUBLIC "-//W3C//DTD SVG 1.1//EN" "http://www.w3.org/Graphics/SVG/1.1/DTD/svg11.dtd">
<svg width="100%" height="100%" viewBox="0 0 90 90" version="1.1" xmlns="http://www.w3.org/2000/svg" xmlns:xlink="http://www.w3.org/1999/xlink" xml:space="preserve" style="fill-rule:evenodd;clip-rule:evenodd;stroke-linejoin:round;stroke-miterlimit:1.41421;">
    <g id="Q">
        <circle cx="45" cy="45" r="45" style="fill:rgb(252,204,10);"/>
        <path d="M48.597,61.4063C49.1829,61.2543 49.9316,60.9831 50.8431,60.5924L45.9928,55.9701L51.1686,50.5664L56.0189,55.1888C56.7784,53.6263 57.3101,52.2591 57.6139,51.0872C58.0914,49.3294 58.3301,47.2786 58.3301,44.9349C58.3301,39.553 57.2287,35.3917 55.026,32.4512C52.8234,29.5106 49.6061,28.0404 45.3743,28.0404C41.403,28.0404 38.2346,29.451 35.8691,32.2721C33.5037,35.0933 32.321,39.3142 32.321,44.9349C32.321,51.5104 34.0137,56.2196 37.3991,59.0625C39.5909,60.9071 42.2168,61.8294 45.2767,61.8294C46.4269,61.8294 47.5336,61.6884 48.597,61.4063ZM66.7936,54.9609C65.9473,57.717 64.6994,60.0065 63.0501,61.8294L68.584,67.0052L63.3431,72.474L57.5488,67.0052C55.791,68.0686 54.2719,68.8173 52.9915,69.2513C50.8431,69.9674 48.2715,70.3255 45.2767,70.3255C39.0267,70.3255 33.8618,68.4592 29.7819,64.7266C24.834,60.2344 22.36,53.6372 22.36,44.9349C22.36,36.1675 24.8991,29.5378 29.9772,25.0456C34.1222,21.378 39.2763,19.5443 45.4395,19.5443C51.6461,19.5443 56.8544,21.4865 61.0645,25.3711C65.9256,29.8633 68.3561,36.1458 68.3561,44.2188C68.3561,48.4939 67.8353,52.0747 66.7936,54.9609Z" style="fill:black;fill-rule:nonzero;"/>
    </g>
</svg>

<svg viewBox="0 0 90 90" xmlns="http://www.w3.org/2000/svg" xml:space="preserve" style="fill-rule:evenodd;clip-rule:evenodd;stroke-linejoin:round;stroke-miterlimit:1.41421"><circle cx="45" cy="45" r="45" style="fill:#fccc0a"/><path d="M48.597 61.406c.586-.152 1.335-.423 2.246-.814l-4.85-4.622 5.176-5.404 4.85 4.623c.76-1.563 1.291-2.93 1.595-4.102.477-1.758.716-3.808.716-6.152 0-5.382-1.101-9.543-3.304-12.484-2.203-2.94-5.42-4.41-9.652-4.41-3.971 0-7.14 1.41-9.505 4.231-2.365 2.821-3.548 7.042-3.548 12.663 0 6.575 1.693 11.285 5.078 14.127 2.192 1.845 4.818 2.767 7.878 2.767 1.15 0 2.257-.14 3.32-.423Zm18.197-6.445c-.847 2.756-2.095 5.046-3.744 6.868l5.534 5.176-5.24 5.469-5.795-5.469c-1.758 1.064-3.277 1.812-4.557 2.246-2.149.716-4.72 1.075-7.715 1.075-6.25 0-11.415-1.867-15.495-5.6-4.948-4.492-7.422-11.089-7.422-19.791 0-8.768 2.54-15.397 7.617-19.89 4.145-3.667 9.3-5.5 15.463-5.5 6.206 0 11.414 1.941 15.625 5.826 4.86 4.492 7.291 10.775 7.291 18.848 0 4.275-.52 7.856-1.562 10.742Z" style="fill:#000;fill-rule:nonzero"/></svg>
